!!!COM:	Busnoys, Antoine
!!!CDT:	~1430///-1492/11/06
!!!OTL:	Vous marchez / Marionnette
!!!AGN:	Song; Chanson
!!!SCT:	Bus3061
!!!SCA:	Bus3061
!!!voices:	4
**kern	**kern	**kern	**kern
*staff4	*staff3	*staff2	*staff1
*Ivox	*Ivox	*Ivox	*Ivox
*I"Contratenor	*I"Tenor II	*I"Tenor I	*I"Superius
*I'Ct	*I'T	*I'T	*I'S
*clefF4	*clefGv2	*clefGv2	*clefG2
*k[]	*k[b-]	*k[b-]	*k[]
*M2/1	*M2/1	*M2/1	*M2/1
*met(C|)	*met(C|)	*met(C|)	*met(C|)
=1-	=1-	=1-	=1-
!	!LO:TX:Y=53:t=Vous marchez du bout du pi&eacute;	!	!LO:TX:Y=59:t=Vous marchez du bout du pi&eacute;
0r	0F	0r	1f
.	.	.	1cc
=2	=2	=2	=2
!LO:TX:Y=50:t=Marionnette	!	!LO:TX:Y=48:t=Vous marchez du bout du pi&eacute;	!
2.A	0r	1c	1cc
4A	.	.	.
1B-i	.	1g	1dd
=3	=3	=3	=3
1G	0r	1g	1b-i
1F	.	1a	1cc
=4	=4	=4	=4
0r	1F	1f	1a
.	1c	1g	1r
=5	=5	=5	=5
1C	1c	1e	2.g
.	.	.	4a
1G	1d	1r	1b-i
=6	=6	=6	=6
1G	1B-	2.d	1g
.	.	4e	.
1A	1c	1f	2.f
.	.	.	4g
=7	=7	=7	=7
1F	1A	2d	1a
.	.	1d	.
1G	1r	.	1b-i
.	.	4c	.
.	.	4B-	.
=8	=8	=8	=8
1E	0r	2c	1.g
.	.	4B-	.
.	.	4A	.
2.E	.	1G	.
.	.	.	2f
4E	.	.	.
=9	=9	=9	=9
1F	2.A	2r	1a
.	.	2c	.
.	4A	.	.
1D	1B-	2d	1f
.	.	2f	.
=10	=10	=10	=10
1C	1G	2.e	1g
.	.	4d	.
1r	1F	1f	1a
=11	=11	=11	=11
0F	0r	0r	1f
.	.	.	1cc
=12	=12	=12	=12
2.A	0r	1c	1cc
4A	.	.	.
1B-i	.	1g	1dd
=13	=13	=13	=13
1G	0r	1g	1b-i
1F	.	1a	1cc
=14	=14	=14	=14
0r	1F	1f	1a
.	1c	1g	1r
=15	=15	=15	=15
1C	1c	1e	1g
1G	1d	1d	1b-i
=16	=16	=16	=16
1G	1B-	1d	1b-i
1A	1c	[1c	2a
.	.	.	[2a
=17	=17	=17	=17
1F	1A	2c]	2a]
.	.	2d	4g
.	.	.	4f
1G	1r	[1e	[1e
=18	=18	=18	=18
0E	1G	2e]	2e]
.	.	2c	2f
.	1G	[1c	2g
.	.	.	4f
.	.	.	4g
=19	=19	=19	=19
1D	1F	2c]	1a
.	.	2B-	.
1D	1F	2B-	2g
.	.	2A	[2f
=20	=20	=20	=20
0C	1G	0c	2f]
.	.	.	2e
.	1G	.	2e
.	.	.	2d
=21	=21	=21	=21
1r	0F	1.A	1f
[1F	.	.	1r
.	.	2F	.
=22	=22	=22	=22
1F]	0r	0F	0cc
1A	.	.	.
=23	=23	=23	=23
0G	1d	0r	1b
.	1e	.	1b
=24	=24	=24	=24
0F	0f	0r	1a
.	.	.	1a
=25	=25	=25	=25
0E	0g	0r	1.b
.	.	.	4a
.	.	.	4g
=26	=26	=26	=26
1F	1f	0r	2a
.	.	.	1dd
1C	1e	.	.
.	.	.	[2cc
=27	=27	=27	=27
1G	1d	0r	2cc]
.	.	.	2b
1A	1c	.	1cc
=28	=28	=28	=28
2F	1d	0r	2a
1G	.	.	1b
.	1e	.	.
2E	.	.	2g
=29	=29	=29	=29
1D	0f	0r	2f
.	.	.	1a
1D	.	.	.
.	.	.	4g
.	.	.	4f
=30	=30	=30	=30
1C	1.g	0r	2e
.	.	.	2c
1BB	.	.	1d
.	2f	.	.
=31	=31	=31	=31
1C	2.e	0r	2c
.	.	.	2.cc
.	4c	.	.
1G	1d	.	.
.	.	.	4b
.	.	.	4b
.	.	.	4a
=32	=32	=32	=32
2.C	0c	0r	0cc
4D	.	.	.
2E	.	.	.
[2F	.	.	.
=33	=33	=33	=33
2F]	0r	1d	1r
2G	.	.	.
1E	.	1e	1g
=34	=34	=34	=34
0D	0r	0f	1.a
.	.	.	4g
.	.	.	4f
=35	=35	=35	=35
1r	0r	0g	1e
1C	.	.	1r
=36	=36	=36	=36
1D	0r	1f	1a
2E	.	1e	2g
[2C	.	.	2e
=37	=37	=37	=37
2C]	0r	1d	2.f
2BB	.	.	.
.	.	.	4g
2.C	.	1c	2.e
4BB	.	.	4d
=38	=38	=38	=38
2C	0r	1A	2e
1D	.	.	1f
.	.	1B-	.
2E	.	.	2g
=39	=39	=39	=39
2C	0r	1c	2e
2.F	.	.	2.a
.	.	1d	.
4E	.	.	4g
[2G	.	.	[2b-i
=40	=40	=40	=40
4G]	0r	1B-	4b-]
4F	.	.	4a
4E	.	.	4g
4D	.	.	4f
1E	.	1B-	1g
=41	=41	=41	=41
0F	0r	1.A	1a
.	.	.	1r
.	.	2B-	.
=42	=42	=42	=42
0r	2.A	1c	1f
.	4A	.	.
.	1B-	2d	2g
.	.	2f	[2b-i
=43	=43	=43	=43
0r	1G	2.e	2b-]
.	.	.	2cc
.	.	4d	.
.	1F	1f	1a
=44	=44	=44	=44
0F	0r	0r	1f
.	.	.	1cc
=45	=45	=45	=45
2.A	0r	1c	1cc
4A	.	.	.
1B-i	.	1g	1dd
=46	=46	=46	=46
1G	0r	1g	1b-i
1F	.	1a	1cc
=47	=47	=47	=47
0r	1F	1f	1a
.	1c	1g	1g
=48	=48	=48	=48
1C	1c	1e	1r
1G	1d	1d	[1b-i
=49	=49	=49	=49
1G	1B-	1d	2b-]
.	.	.	2a
1A	1c	[1c	2.a
.	.	.	4b-i
=50	=50	=50	=50
1F	1A	2c]	2.cc
.	.	2d	.
.	.	.	4b-i
1G	1r	[1e	2g
.	.	.	[2b-i
=51	=51	=51	=51
0E	1G	2e]	4b-]
.	.	.	4a
.	.	2c	2.cc
.	1G	[1c	.
.	.	.	4b-i
.	.	.	4a
.	.	.	4g
=52	=52	=52	=52
1D	1F	1c]	2b-i
.	.	.	2.a
1D	1F	2.B-	.
.	.	.	4g
.	.	.	[2f
.	.	4A	.
=53	=53	=53	=53
0C	1G	[0cl	2f]
.	.	.	2e
.	1G	.	2e
.	.	.	2d
=54	=54	=54	=54
0Fl	0Fl	0c]	0fl
==	==	==	==
*-	*-	*-	*-
!!!RDF**kern: l=long note in original notation
!!!RDF**kern: i=editorial accidental
!!!ENC:	Chris Gage 04-15-2015
!!!END:	2015/05/13/
!!!EED:	Jesse Rodin
!!!EEV:	2015/09/21/
!!!ONB:	Translated from MusicXML and edited on 2015/09/21/ by Craig Sapp
!!muse2ps: C^@{COM}^i2I150v85,85,85,150Q16
